svg/account_supervisor.svg

<svg xmlns="http://www.w3.org/2000/svg" viewBox="0 0 24 24"><path d="M16.5 12A2.5 2.5 0 0 0 19 9.5 2.5 2.5 0 0 0 16.5 7 2.5 2.5 0 0 0 14 9.5a2.5 2.5 0 0 0 2.5 2.5M9 11a3 3 0 0 0 3-3 3 3 0 0 0-3-3 3 3 0 0 0-3 3 3 3 0 0 0 3 3m7.5 3c-1.83 0-5.5.92-5.5 2.75V19h11v-2.25c0-1.83-3.67-2.75-5.5-2.75M9 13c-2.33 0-7 1.17-7 3.5V19h7v-2.25c0-.85.33-2.34 2.37-3.47C10.5 13.1 9.66 13 9 13"/></svg>

<?xml version="1.0" encoding="UTF-8"?><!DOCTYPE svg PUBLIC "-//W3C//DTD SVG 1.1//EN" "http://www.w3.org/Graphics/SVG/1.1/DTD/svg11.dtd"><svg xmlns="http://www.w3.org/2000/svg" xmlns:xlink="http://www.w3.org/1999/xlink" version="1.1" id="mdi-account-supervisor" width="24" height="24" viewBox="0 0 24 24"><path d="M16.5,12A2.5,2.5 0 0,0 19,9.5A2.5,2.5 0 0,0 16.5,7A2.5,2.5 0 0,0 14,9.5A2.5,2.5 0 0,0 16.5,12M9,11A3,3 0 0,0 12,8A3,3 0 0,0 9,5A3,3 0 0,0 6,8A3,3 0 0,0 9,11M16.5,14C14.67,14 11,14.92 11,16.75V19H22V16.75C22,14.92 18.33,14 16.5,14M9,13C6.67,13 2,14.17 2,16.5V19H9V16.75C9,15.9 9.33,14.41 11.37,13.28C10.5,13.1 9.66,13 9,13Z" /></svg>
